resources/haticons/SVG/volume-down.svg

<!-- Generated by IcoMoon.io -->
<svg version="1.1" xmlns="http://www.w3.org/2000/svg" width="24" height="24" viewBox="0 0 24 24">
<title>volume-down</title>
<path d="M6.337 7.939c0.431 0 0.784-0.349 0.784-0.784 0-0.431-0.349-0.784-0.784-0.784-1.684 0-3.053 1.178-3.053 2.629v6.671c0 1.451 1.369 2.629 3.053 2.629 0.431 0 0.784-0.352 0.784-0.784s-0.349-0.784-0.784-0.784c-0.806 0-1.485-0.487-1.485-1.061v-6.671c0-0.574 0.683-1.061 1.485-1.061zM15.814 23.325c0.131 0 0.263-0.034 0.383-0.098 0.247-0.139 0.401-0.401 0.401-0.683v-20.749c0-0.285-0.158-0.551-0.405-0.686-0.251-0.139-0.555-0.127-0.799 0.026l-7.624 4.875c-0.225 0.142-0.36 0.394-0.36 0.66v11.168c0 0.27 0.143 0.525 0.371 0.667l7.624 4.699c0.124 0.079 0.266 0.12 0.409 0.12zM15.030 21.139l-6.060-3.735v-10.301l6.060-3.877zM19.489 15.652c0.056 0.011 0.109 0.015 0.161 0.015 0.364 0 0.686-0.251 0.765-0.619 0.652-3.090 0.019-5.681-0.008-5.79-0.105-0.42-0.529-0.671-0.949-0.57-0.42 0.105-0.675 0.529-0.57 0.949 0.008 0.022 0.57 2.363-0.004 5.085-0.090 0.428 0.18 0.84 0.604 0.93z"></path>
</svg>

<svg xmlns="http://www.w3.org/2000/svg" width="24" height="24"><path d="M6.337 7.939a.784.784 0 1 0 0-1.568C4.653 6.371 3.284 7.549 3.284 9v6.671c0 1.451 1.369 2.629 3.053 2.629a.783.783 0 1 0 0-1.568c-.806 0-1.485-.487-1.485-1.061V9c0-.574.683-1.061 1.485-1.061zm9.477 15.386a.817.817 0 0 0 .383-.098.786.786 0 0 0 .401-.683V1.795a.784.784 0 0 0-1.204-.66L7.77 6.01a.782.782 0 0 0-.36.66v11.168c0 .27.143.525.371.667l7.624 4.699c.124.079.266.12.409.12zm-.784-2.186l-6.06-3.735V7.103l6.06-3.877zm4.459-5.487a.78.78 0 0 0 .926-.604c.652-3.09.019-5.681-.008-5.79a.782.782 0 1 0-1.519.379c.008.022.57 2.363-.004 5.085-.09.428.18.84.604.93z"/></svg>
